X: 28503
T: Munster Bank, The
R: polka
M: 2/4
K: Amajor
|:A/B/A/F/ EF|AB ce|fe cA/c/|BA F2|
A/B/A/F/ EF|AB ce|fe cA/c/|BA A2:|
|:ef/e/ ce|fe e2|a/b/a/f/ ec|BA F2|
A/B/A/F/ EF|AB ce|fe cA/c/|BA A2:|

